X:1144
T:Banks of the Dee,The. BF12.29
M:6/8
Q:100
C:Browne "C" hand
S:MS12,c1835,Browne Coll.,Lakes
R:Jig
O:England
A:Lakes
N:The second part is written out identically twice instead of using
N:repeat marks as I have done..CGP
Z:vmp.Chris Partington
K:A
E|E-F.G|A-B.c|d-f.e d-c.B|c-A.F E-F.A|c-d.B A2E|!
E-F.G|A-B.c|d-f.e d-c.B|c-A.F E-F.A|c-d.B A2::!
d|c2de2e|f-d.f e-c.A|A-c.e f-g.a|A-c.B AF.E|!
d-f.d c-e.c|B-A.B c-A.F|A-F.E|E-F.A|c-d.B A2:|]


